Origami/24x24/apps/kube.svg

<svg width="24" height="24" version="1" xmlns="http://www.w3.org/2000/svg">
 <rect transform="matrix(0,-1,-1,0,0,0)" x="-22" y="-22" width="20" height="20" rx="1" ry="1" style="fill:#ef5a30"/>
 <path d="m6 5.5v14h3v-2.700196l1.5 2.700196h3.5l-2.5-4.5 2.5-4.5h-3.5l-1.5 2.700196v-7.700196h-3zm9 5-2.5 4.5 2.5 4.5h3.5l-2.5-4.5 2.5-4.5h-3.5z" style="opacity:.2"/>
 <path d="m3 2c-0.554 0-1 0.446-1 1v0.5c0-0.554 0.446-1 1-1h18c0.554 0 1 0.446 1 1v-0.5c0-0.554-0.446-1-1-1h-18z" style="fill:#ffffff;opacity:.2"/>
 <path d="m3 22.5c-0.554 0-1-0.446-1-1v-0.5c0 0.554 0.446 1 1 1h18c0.554 0 1-0.446 1-1v0.5c0 0.554-0.446 1-1 1h-18z" style="opacity:.2"/>
 <path d="m9 5h-3v14h3z" style="fill:#ffffff"/>
 <path d="m10.5 10-2.5 4.5 2.5 4.5h3.5l-2.5-4.5 2.5-4.5z" style="fill:#ffffff"/>
 <path d="m15 10-2.5 4.5 2.5 4.5h3.5l-2.5-4.5 2.5-4.5z" style="fill:#ffffff"/>
</svg>

<svg xmlns="http://www.w3.org/2000/svg" width="24" height="24" version="1">
 <rect style="fill:#ef5a30" width="20" height="20" x="-22" y="-22" rx="1" ry="1" transform="matrix(0,-1,-1,0,0,0)"/>
 <path style="opacity:0.2" d="m 6,5.5 0,14 3,0 L 9,16.799804 10.5,19.5 14,19.5 11.5,15 14,10.5 10.5,10.5 9,13.200196 9,5.5 6,5.5 Z m 9,5 -2.5,4.5 2.5,4.5 3.5,0 -2.5,-4.5 2.5,-4.5 -3.5,0 z"/>
 <path style="opacity:0.2;fill:#ffffff" d="M 3,2 C 2.446,2 2,2.446 2,3 l 0,0.5 c 0,-0.554 0.446,-1 1,-1 l 18,0 c 0.554,0 1,0.446 1,1 L 22,3 C 22,2.446 21.554,2 21,2 L 3,2 Z"/>
 <path style="opacity:0.2" d="m 3,22.5 c -0.554,0 -1,-0.446 -1,-1 L 2,21 c 0,0.554 0.446,1 1,1 l 18,0 c 0.554,0 1,-0.446 1,-1 l 0,0.5 c 0,0.554 -0.446,1 -1,1 l -18,0 z"/>
 <path style="fill:#ffffff" d="M 9,5 6,5 6,19 9,19 Z"/>
 <path style="fill:#ffffff" d="M 10.5,10 8,14.5 10.5,19 14,19 11.5,14.5 14,10 Z"/>
 <path style="fill:#ffffff" d="M 15,10 12.5,14.5 15,19 18.5,19 16,14.5 18.5,10 Z"/>
</svg>
